public/svg/white/deez.svg

<svg xmlns="http://www.w3.org/2000/svg" width="32" height="32" viewBox="0 0 32 32"><path fill="#FFF" d="M16,32 C7.163444,32 0,24.836556 0,16 C0,7.163444 7.163444,0 16,0 C24.836556,0 32,7.163444 32,16 C32,24.836556 24.836556,32 16,32 Z M13.7072582,19.8607384 C13.7052244,19.9943115 13.7062413,20.3685199 13.7143765,20.9119888 C13.7204779,21.3014919 13.7255625,21.6135022 13.7336977,21.7868413 C14.0763951,21.5849522 15.2499047,20.8926156 19.316512,18.4964581 C22.1272404,16.8405603 24.2169823,15.6037351 24.8067878,15.2488999 C23.3607474,14.3475368 13.0401678,8.01760223 12.1005466,7.45577976 L11.3388839,7 L10.2304563,7.75045616 C9.77386551,8.06042718 9.39252574,8.32043576 9.19727978,8.45604808 C9.32439303,8.53761941 9.53184187,8.66609424 9.79928817,8.82515831 C9.90708021,8.89041537 20.5784924,15.3743158 20.6079827,15.498712 C20.6384899,15.6016958 20.6384899,15.6016958 18.9148341,16.6560052 C16.5251049,18.1191907 14.0723274,19.623162 13.7072582,19.8607384 Z M11.3388839,13.5644521 C11.337867,14.2945154 11.337867,16.8222067 11.3388839,19.7761082 C11.3409178,22.8870345 11.3460023,25.2729956 11.3500699,25.9724697 C12.9374603,25.0721262 24.3237575,18.5545777 24.7386551,18.308844 L24.8088217,18.2680584 L25,15.5853816 L24.4203635,15.9269615 C13.590314,22.3160352 13.5781111,22.3201138 13.5496377,22.3292905 L13.4886234,22.350703 L13.4347273,22.3139959 C13.3543918,22.256896 13.3543918,22.256896 13.2893098,16.6804765 L13.2669378,14.7502952 L12.2378289,14.1119996 C11.8442863,13.8672856 11.5239608,13.6735537 11.3388839,13.5644521 Z M9,24.7988623 L10.0372442,25.4402168 C10.4226516,25.6798326 10.7521291,25.8827412 10.9453413,26 C10.9473751,25.2597403 10.9504258,22.7218525 10.9524596,19.6680262 L10.9565273,12.8996458 L11.6083641,13.2789525 C11.857506,13.4247612 13.0960976,14.1813352 14.3682471,14.9674788 C15.6342952,15.7495438 16.9044108,16.525491 17.1993136,16.6988301 L17.671158,16.9741333 L20.0354646,15.5282816 L19.3195627,15.0979929 C18.8324647,14.8063754 16.5383246,13.4074273 14.2055421,11.9799292 C11.8290327,10.5259204 9.72505402,9.24321133 9.41286386,9.0606955 L9.02542265,8.8322958 L9,24.7988623 Z"/></svg>

<svg xmlns="http://www.w3.org/2000/svg" width="32" height="32" viewBox="0 0 32 32"><path fill="#FFF" d="M16 32C7.163 32 0 24.837 0 16S7.163 0 16 0s16 7.163 16 16-7.163 16-16 16zm-2.293-12.14a53.764 53.764 0 00.027 1.927l5.583-3.29c2.81-1.656 4.9-2.893 5.49-3.248A2999.434 2999.434 0 0012.1 7.456L11.339 7l-1.109.75c-.456.31-.837.57-1.033.706.127.082.335.21.602.37.108.064 10.78 6.548 10.809 6.673.03.103.03.103-1.693 1.157a658.095 658.095 0 00-5.208 3.205zm-2.368-6.296v6.212c.002 3.111.007 5.497.011 6.196 1.587-.9 12.974-7.417 13.389-7.663l.07-.04.191-2.684-.58.342c-10.83 6.389-10.842 6.393-10.87 6.402l-.061.022-.054-.037c-.08-.057-.08-.057-.146-5.634l-.022-1.93-1.03-.638a48.502 48.502 0 00-.898-.548zM9 24.8l1.037.641c.386.24.715.443.908.56.002-.74.005-3.278.007-6.332l.005-6.768.651.379c.25.146 1.488.902 2.76 1.688 1.266.783 2.536 1.558 2.831 1.732l.472.275 2.364-1.446-.715-.43c-.488-.292-2.782-1.69-5.114-3.118a779.624 779.624 0 00-4.793-2.92l-.388-.228L9 24.8z"/></svg>
